X: 41194
T: Triton's Trident
R: reel
M: 4/4
K: Eminor
FcdB (3ABc BG|Fffe ceAG|FcdB (3ABc BG|~E2BE GEAG|
FcdB (3ABc BG|Fffe cega|fc~c2 AcGF|EeGA BEAG:|
|:F2DF CFB,F|~B2Ac BAGB|F2DF CFB,F|A,AAG ED (3EFG|
F2DF CFB,F|~B2Ac Bcde|fc~c2 AcGF|EeGA BEAG:|

